X: 15893
T: Gráinne's
R: jig
M: 6/8
K: Gmajor
dGF GDB,|G,2G, DB,D|EcB ABG|FED cBA|
BdB ~G3|EGE CEG|DGc BEF|AGF G2:|
~B3 Ggf|ecA E2E|DFA ~f3|ed^c d2=c|
BdB Ggf|ecA ~E3|DGc BEF|AGF G2:|
GBd ~g3|ecB c2B|A^ce a2g|fd^c def|
gdB Ggf|ecA ~E3|DGc BEF|AGF G2:|

